apps/client/src/assets/icons/cut.svg

<svg width="15" height="16" viewBox="0 0 15 16" fill="none" xmlns="http://www.w3.org/2000/svg">
<path fill-rule="evenodd" clip-rule="evenodd" d="M12.3719 2.82764C12.6719 2.4201 12.7894 1.91597 12.6985 1.42611C12.6076 0.93625 12.3158 0.500754 11.8872 0.215375L11.5636 0L7.50133 5.5157L3.43831 0L3.11466 0.215375C2.68621 0.500869 2.39456 0.936419 2.30382 1.42627C2.21308 1.91613 2.33068 2.42019 2.63076 2.82764L6.05594 7.47809L4.63503 9.40671C3.837 9.16392 2.97437 9.19712 2.19959 9.50045C1.42481 9.80377 0.787759 10.3577 0.401018 11.0643C0.0142766 11.771 -0.0972586 12.5848 0.0861226 13.3621C0.269504 14.1393 0.735996 14.8299 1.40316 15.3118C2.07032 15.7937 2.89521 16.0359 3.73205 15.9956C4.56888 15.9553 5.36379 15.6351 5.9763 15.0915C6.5888 14.548 6.97948 13.8161 7.07928 13.0252C7.17908 12.2343 6.98158 11.4354 6.52169 10.7695L7.50054 9.44123L8.47939 10.768C8.01913 11.4336 7.82116 12.2324 7.92048 13.0233C8.01979 13.8142 8.40999 14.5463 9.02212 15.0902C9.63425 15.6341 10.4289 15.9547 11.2657 15.9956C12.1025 16.0364 12.9275 15.7947 13.5949 15.3132C14.2624 14.8318 14.7294 14.1415 14.9133 13.3644C15.0973 12.5873 14.9864 11.7734 14.6002 11.0666C14.214 10.3597 13.5774 9.80534 12.8029 9.50147C12.0284 9.19761 11.1658 9.16378 10.3676 9.40596L8.94671 7.47809L12.3719 2.82764ZM2.36868 12.6246C2.36868 12.4768 2.3993 12.3304 2.45881 12.1938C2.51832 12.0572 2.60554 11.9332 2.71549 11.8286C2.82544 11.7241 2.95598 11.6412 3.09964 11.5846C3.2433 11.528 3.39727 11.4989 3.55277 11.4989C3.70827 11.4989 3.86224 11.528 4.0059 11.5846C4.14956 11.6412 4.2801 11.7241 4.39005 11.8286C4.5 11.9332 4.58722 12.0572 4.64673 12.1938C4.70624 12.3304 4.73686 12.4768 4.73686 12.6246C4.73686 12.9231 4.61211 13.2094 4.39005 13.4205C4.16799 13.6316 3.86681 13.7502 3.55277 13.7502C3.23873 13.7502 2.93755 13.6316 2.71549 13.4205C2.49343 13.2094 2.36868 12.9231 2.36868 12.6246ZM10.2626 12.6246C10.2626 12.326 10.3874 12.0397 10.6094 11.8286C10.8315 11.6175 11.1327 11.4989 11.4467 11.4989C11.7608 11.4989 12.0619 11.6175 12.284 11.8286C12.5061 12.0397 12.6308 12.326 12.6308 12.6246C12.6308 12.9231 12.5061 13.2094 12.284 13.4205C12.0619 13.6316 11.7608 13.7502 11.4467 13.7502C11.1327 13.7502 10.8315 13.6316 10.6094 13.4205C10.3874 13.2094 10.2626 12.9231 10.2626 12.6246Z" fill="white"/>
</svg>

<svg xmlns="http://www.w3.org/2000/svg" width="15" height="16" fill="none"><path fill="#fff" fill-rule="evenodd" d="M12.372 2.828c.3-.408.417-.912.326-1.402a1.87 1.87 0 0 0-.81-1.21L11.563 0 7.5 5.516 3.438 0l-.323.215a1.87 1.87 0 0 0-.811 1.211c-.09.49.027.994.327 1.402l3.425 4.65-1.421 1.929A3.73 3.73 0 0 0 2.2 9.5 3.5 3.5 0 0 0 .4 11.064a3.23 3.23 0 0 0-.315 2.298c.184.777.65 1.468 1.317 1.95a3.68 3.68 0 0 0 2.33.684 3.65 3.65 0 0 0 2.243-.905 3.32 3.32 0 0 0 1.103-2.066c.1-.79-.097-1.59-.557-2.255L7.5 9.44l.978 1.327a3.25 3.25 0 0 0-.559 2.255c.1.791.49 1.523 1.102 2.067a3.65 3.65 0 0 0 2.244.906 3.68 3.68 0 0 0 2.329-.683 3.37 3.37 0 0 0 1.318-1.949 3.23 3.23 0 0 0-.313-2.297A3.5 3.5 0 0 0 12.803 9.5a3.73 3.73 0 0 0-2.435-.095L8.947 7.478zM2.369 12.625c0-.148.03-.295.09-.431q.091-.206.256-.365a1.237 1.237 0 0 1 1.675 0q.166.158.257.365a1.08 1.08 0 0 1-.257 1.226c-.222.212-.523.33-.837.33s-.615-.118-.838-.33a1.1 1.1 0 0 1-.346-.795m7.894 0c0-.299.124-.585.346-.796.223-.212.524-.33.838-.33s.615.118.837.33c.222.21.347.497.347.796 0 .298-.125.584-.347.796-.222.21-.523.33-.837.33s-.615-.12-.838-.33a1.1 1.1 0 0 1-.346-.796" clip-rule="evenodd"/></svg>
